utils/icons-generator/ic_action_more.svg

<?xml version="1.0" encoding="UTF-8"?>
<svg xmlns="http://www.w3.org/2000/svg" xmlns:xlink="http://www.w3.org/1999/xlink" width="1000pt" height="1000pt" viewBox="0 0 1000 1000" version="1.1">
<g id="surface1">
<path style=" stroke:none;fill-rule:nonzero;fill:rgb(0%,0%,0%);fill-opacity:1;" d="M 500 333.332031 C 545.832031 333.332031 583.332031 295.832031 583.332031 250 C 583.332031 204.167969 545.832031 166.667969 500 166.667969 C 454.167969 166.667969 416.667969 204.167969 416.667969 250 C 416.667969 295.832031 454.167969 333.332031 500 333.332031 Z M 500 416.667969 C 454.167969 416.667969 416.667969 454.167969 416.667969 500 C 416.667969 545.832031 454.167969 583.332031 500 583.332031 C 545.832031 583.332031 583.332031 545.832031 583.332031 500 C 583.332031 454.167969 545.832031 416.667969 500 416.667969 Z M 500 666.667969 C 454.167969 666.667969 416.667969 704.167969 416.667969 750 C 416.667969 795.832031 454.167969 833.332031 500 833.332031 C 545.832031 833.332031 583.332031 795.832031 583.332031 750 C 583.332031 704.167969 545.832031 666.667969 500 666.667969 Z M 500 666.667969 "/>
</g>
</svg>

<?xml version="1.0" encoding="UTF-8" standalone="no"?>
<svg
   xmlns:dc="http://purl.org/dc/elements/1.1/"
   xmlns:cc="http://creativecommons.org/ns#"
   xmlns:rdf="http://www.w3.org/1999/02/22-rdf-syntax-ns#"
   xmlns:svg="http://www.w3.org/2000/svg"
   xmlns="http://www.w3.org/2000/svg"
   xmlns:sodipodi="http://sodipodi.sourceforge.net/DTD/sodipodi-0.dtd"
   xmlns:inkscape="http://www.inkscape.org/namespaces/inkscape"
   width="1000pt"
   height="1000pt"
   viewBox="0 0 1000 1000"
   version="1.1"
   id="svg36"
   sodipodi:docname="ic_action_more.svg"
   inkscape:version="0.92.4 (5da689c313, 2019-01-14)">
  <metadata
     id="metadata42">
    <rdf:RDF>
      <cc:Work
         rdf:about="">
        <dc:format>image/svg+xml</dc:format>
        <dc:type
           rdf:resource="http://purl.org/dc/dcmitype/StillImage" />
      </cc:Work>
    </rdf:RDF>
  </metadata>
  <defs
     id="defs40" />
  <sodipodi:namedview
     pagecolor="#ffffff"
     bordercolor="#666666"
     borderopacity="1"
     objecttolerance="10"
     gridtolerance="10"
     guidetolerance="10"
     inkscape:pageopacity="0"
     inkscape:pageshadow="2"
     inkscape:window-width="2560"
     inkscape:window-height="1346"
     id="namedview38"
     showgrid="false"
     inkscape:zoom="0.177"
     inkscape:cx="666.66667"
     inkscape:cy="666.66667"
     inkscape:window-x="-11"
     inkscape:window-y="-11"
     inkscape:window-maximized="1"
     inkscape:current-layer="svg36" />
  <g
     id="surface1"
     transform="matrix(1.4972526,0,0,1.4972526,-248.62628,-248.62628)">
    <path
       style="fill:#000000;fill-opacity:1;fill-rule:nonzero;stroke:none"
       d="m 500,333.33203 c 45.83203,0 83.33203,-37.5 83.33203,-83.33203 0,-45.83203 -37.5,-83.33203 -83.33203,-83.33203 -45.83203,0 -83.33203,37.5 -83.33203,83.33203 0,45.83203 37.5,83.33203 83.33203,83.33203 z m 0,83.33594 c -45.83203,0 -83.33203,37.5 -83.33203,83.33203 0,45.83203 37.5,83.33203 83.33203,83.33203 45.83203,0 83.33203,-37.5 83.33203,-83.33203 0,-45.83203 -37.5,-83.33203 -83.33203,-83.33203 z m 0,250 c -45.83203,0 -83.33203,37.5 -83.33203,83.33203 0,45.83203 37.5,83.33203 83.33203,83.33203 45.83203,0 83.33203,-37.5 83.33203,-83.33203 0,-45.83203 -37.5,-83.33203 -83.33203,-83.33203 z m 0,0"
       id="path33"
       inkscape:connector-curvature="0" />
  </g>
</svg>
